X:1
T:Psalm
T:Moritz Hauptmann
T:Psalm
T:Salvum fac regem, Domine, Op.9, arr. mit anderem Text
T:CPDL   —   Creative Commons Attribution Non Commercial 3.0
T:CPDL   —   Creative Commons Attribution Non Commercial 3.0
T:CPDL   —   Creative Commons Attribution Non Commercial 3.0
T:CPDL   —   Creative Commons Attribution Non Commercial 3.0
C:Moritz Hauptmann
Z:CPDL   —   Creative Commons Attribution Non Commercial 3.0
%%score [ ( 1 2 ) ( 3 4 ) ]
L:1/8
Q:1/4=120
M:4/4
K:Eb
V:1 treble nm="Sopran\nAlt"
V:2 treble 
V:3 bass nm="Tenor\nBass"
V:4 bass 
V:1
!p!"^Langsam""^Halbchor" !^!E4 E2 E2 | G4 G2 G2 |!<(! B2 B2 B2!<)! B2 |!>(! G4!>)!!mf! (B2 e2) | %4
w: Kommt, lasst uns|be- ten und|knie- en vor dem|Herrn und _|
 d4 A4 | G4 c2 c2 |!>(! F4!>)! z2!p! B2 | B4 A4 | G6!<(! G2 | B4!<)! e4 |!f! g6 f2 | %11
w: nie- der-|fal- len vor|ihm; denn|er ist|Gott, ist|un- ser|Gott und|
!>(! e4!>)!!mf! e4 | e2 e2 c2 AA |"^dim." (G4 F4) |"^Wiederholung\nChor" E6 z2 :| %15
w: Herr, und|wir das Volk sei- ner|Wei- *|de.|
!p!!<(! !^!B6 B2!<)! |!>(! B4 G4!>)! |!<(! B6 B2!<)! |!>(! B4 G4!>)! |!mf!!<(! B4 =B2 B2!<)! | %20
w: Lasst uns|be- ten,|lasst uns|dan- ken,|lasst uns froh-|
!>(! c4!>)! G2!mf! G2 | !>!G2 G2 !>!A2"^dim." F2 | =E4 z4 |!mf!!<(! !^!c6 c2!<)! | c4 A2 A2 | %25
w: lo- cken dem|Hor- te uns- res|Heils.|Lasst mit|Dank uns vor|
!f! c2 c2 f2 d2 |!>(! c4 =B4!>)! |!f! !^!G4!<(! G4!<)! | (G2 e2) d2 c2 | B4 c2 B2 | %30
w: sei- nem Thron er-|schei- nen;|kommt, lasst|Psal- * men er-|schal- len dem|
"^dim." (B6 A2) |!pp![Q:1/4=120]"^a tempo" G4 G2 G2 | G4 G2 A2 |!<(! B2 B2!<)! B2!>(! B2 | %34
w: Herrn! _|Kommt, lasst uns|be- ten und|knie- en vor dem|
 G2!>)!"^dolce"!mf! B2 e2 B2 |!>(! G2 E2!>)! z2 G2 | G3!<(! G G2 =A2!<)! | B6!>(! B2 | %38
w: Herrn und nie- der-|fal- len, und|nie- der- fal- len|vor dem|
 B4!>)!!mf! E2 F2 | G3 G"^cresc." G2 G2 | G3 G G2 A2 | B4 B2 B2 | E4!mf! A4 | !>!A4 G2 G2 | %44
w: Herrn! Lasst uns|be- ten, lasst uns|jau- zen, lasst uns|dan- ken dem|Herrn, denn|er ist der|
 !^!F4 F2 G2 | G4 z4 | z4!f! G2 B2 | e3 e"^cresc." e2 e2 | e4 e2 f2 |!ff! g6 f2 | e4 e4 | %51
w: Herr, un- ser|Gott!|lasst uns|jau- zen, lasst uns|dan- ken dem|Herrn, *|Herrn, denn|
 e4 c2 A2 | G4 F2 F2 | E4 z4 |!mf!!<(! B8-!<)! |!>(! B4!>)! G4 |!mf!!<(! G8-!<)! | G4!>(! E4!>)! | %58
w: er ist der|Herr, un- ser|Gott!|A-|* men!|A-|* men!|
!p! E8- | E8- | E8 |!>(! !fermata!E8!>)! |] %62
w: A-|||men!|
V:2
 B,4 B,2 B,2 | E4 E2 E2 | E2 E2 D2 D2 | E4 E4 | A4 F4 | E4 _G2 G2 | F4 x2 D2 | E4 F4 | E6 E2 | %9
w: |||||||||
 F4 E4 | (D4 G2) G2 | G4 G4 | E2 E2 E2 FF | (E4 D4) | B,6 x2 :| z4 F2 F2 | G4 E4 | z4 F2 F2 | %18
w: ||||||Lasst *||lasst *|
 B,4 E4 | G4 F2 F2 | =E4 G2 C2 | =B,2 B,2 B,2 B,2 | C4 x4 | z4 G2 G2 | C4 F2 F2 | A2 A2 F2 A2 | %26
w: |||||Lasst *|||
 A4 G4 | G4 F4 | E4 E2 E2 | F4 G2 G2 | D8 | E4 E2 E2 | E4 E2 E2 | E2 E2 D2 D2 | E2 G2 B2 G2 | %35
w: |||||||||
 E2 E2 x2 E2 | E3 G G2 F2 | F6 ^F2 | G4 G,2 B,2 | E3 E E2 E2 | E3 E E2 E2 | E4 E2 E2 | E4 (F2 E2) | %43
w: ||||||||
 D4 E2 E2 | E4 D2 D2 | E4 x4 | x4 E2 F2 | G2 c2 e2 _d2 | c4 c2 c2 | =B4 d4 | G4 G4 | E4 E2 E2 | %52
w: ||||||* dem|||
 E4 D2 D2 | E4 x4 | x4 (F4 | B,4) E4 | x4 (F4 | E4) C4 | x4 _D4 | C4 (C4- | C4 B,2 A,2) | B,8 |] %62
w: ||A-|* men!|A-|* men!|A-|men! A-||men!|
V:3
!p! !^!G,4 G,2 G,2 | E,4 E,2 E,2 |!<(! F,2 F,2 F,2!<)! B,2 |!>(! B,4!>)!!mf! B,4 | B,4 B,4 | %5
w: |||||
 B,4 E2 E2 |!>(! D4!>)! z2!p! B,2 | B,4 B,4 | B,6!<(! B,2 | F,4!<)! G,2 C2 |!f! =B,6 D2 | %11
w: ||||||
!>(! C4!>)!!mf! _D4 | C2 C2 A,2 CC |"^dim." (B,6 A,2) | G,6 z2 :| z4!p!!<(! A,2 A,2!<)! | %16
w: |||||
!>(! G,4 B,4!>)! | z4!<(! A,2 A,2!<)! |!>(! G,4 B,4!>)! |!mf!!<(! G,4 G,2 G,2!<)! | %20
w: ||||
!>(! G,4!>)! =E,2!mf! E,2 | !>!F,2 F,2 !>!F,2"^dim." F,2 | G,4 z4 | z4!mf!!<(! B,2 B,2!<)! | %24
w: ||||
 A,4 C2 C2 |!f! A,2 A,2 A,2 F,2 |!>(! D4 D4!>)! | z4!f!!<(! D4!<)! | (C2 G,2) A,2 A,2 | %29
w: |||||
 A,4 G,2 G,2 |"^dim." F,8 |!pp! G,4 B,2 G,2 | (C2 G,2) E,2 F,2 |!<(! F,2 F,2!<)! F,2!>(! B,2!>)! | %34
w: |||||
 B,6 z2 | z2"^dolce" G,2 B,2 G,2 | E,2 E,2!<(! E4!<)! | E4!>(! D4 | E4!>)! z4 | %39
w: |und nie- der-|fal- len vor|Gott, dem|Herrn!|
 z4"^cresc." G,2 B,2 | E2 E2 D2 C2 | B,4 _D2 D2 | C4!mf! C4 | !>!F,4 G,2 A,2 | !^!B,4 B,2 B,2 | %45
w: lasst uns|jau- zen, * *|||||
 B,4!f! G,2 B,2 | E3 E E2 D2 | C3 C"^cresc." C2 B,2 | (A,2 C2) F2 C2 |!ff! D4 =B,4 | C4 _D4 | %51
w: * lasst uns|be- ten, * *|||||
 C4 A,2 C2 | B,4 B,2 A,2 | G,4 z4 | z4!mf!!<(! (A,4!<)! |!>(! G,4)!>)! B,4 | z4!mf!!<(! (D4!<)! | %57
w: |||A-|* men!|A-|
 G,3 A,)!>(! G,4!>)! | z4!p! (B,4- | B,4 A,2 G,2 | A,4 G,2!<(! F,2)!<)! |!>(! !fermata!G,8!>)! |] %62
w: * * men!|A-|||men!|
V:4
 E,4 E,2 E,2 | C,4 C,2 C,2 | B,,2 B,,2 B,,2 B,,2 | E,4 G,4 | F,4 D,4 | E,4 =A,,2 A,,2 | %6
w: ||||||
 B,,4 x2 B,,2 | C,4 D,4 | E,6 E,2 | D,4 C,4 | G,,6 G,,2 | C,4 B,,4 | A,,2 A,,2 A,,2 F,,F,, | B,,8 | %14
w: ||||||||
 E,6 x2 :| x4 D,2 D,2 | E,4 G,4 | x4 D,2 D,2 | E,4 G,4 | E,4 _D,2 D,2 | C,4 C,2 C,2 | %21
w: |||||||
 _D,2 D,2 D,2 D,2 | C,4 x4 | x4 =E,2 E,2 | F,4 A,2 A,2 | F,2 F,2 D,2 D,2 | G,,4 G,,4 | x4 =B,,4 | %28
w: |||||||
 C,4 C,2 C,2 | D,4 E,2 E,2 | B,,8 | E,4 E,2 E,2 | C,4 C,2 C,2 | B,,2 B,,2 B,,2 B,,2 | E,6 x2 | %35
w: |||||||
 x2 E,2 G,2 E,2 | C,2 C,2 C4 | B,4 B,,4 | E,4 x4 | x4 E,2 D,2 | C,2 C2 B,2 A,2 | G,4 G,,2 G,,2 | %42
w: |||||||
 A,,4 F,,4 | B,,4 B,,2 B,,2 | B,,4 B,,2 B,,2 | E,4 z4 | z8 | z4 C,2 E,2 | A,4 A,2 A,2 | G,6 G,2 | %50
w: ||||||||
 C4 B,4 | A,4 A,2 F,2 | B,4 B,,2 B,,2 | E,4 x4 | x4 (D,4 | E,4) G,4 | x4 (=B,,4 | C,4) E,4 | %58
w: ||||||||
 x4 G,,4 | A,,4 (A,,4- | A,,4 C,4) | E,8 |] %62
w: A-|men! A-||men!|

